www/assets/icons/photo_album.svg

<svg xmlns="http://www.w3.org/2000/svg" width="24" height="24" viewBox="0 0 24 24" fill='currentColor'><path d="M18 2H6c-1.1 0-2 .9-2 2v16c0 1.1.9 2 2 2h12c1.1 0 2-.9 2-2V4c0-1.1-.9-2-2-2m-7 2h5v7l-2.5-1.5L11 11zM7 18l2.38-3.17L11 17l2.62-3.5L17 18z"/></svg>

<svg width="24" height="24" viewBox="0 0 24 24" xmlns="http://www.w3.org/2000/svg" fill='currentColor'><path d="M18 2H6C4.9 2 4 2.9 4 4V20C4 21.1 4.9 22 6 22H18C19.1 22 20 21.1 20 20V4C20 2.9 19.1 2 18 2ZM11 4H16V11L13.5 9.5L11 11V4ZM7 18L9.38 14.83L11 17L13.62 13.5L17 18H7Z"/></svg>
